projects/oblique/icons/Image.svg

<?xml version="1.0" encoding="UTF-8"?><svg id="a" xmlns="http://www.w3.org/2000/svg" viewBox="0 0 24 24"><path d="M2.24973,2.24984v19.5h19.5V2.24984H2.24973ZM20.24973,3.74984v7.97656l-3.96094-3.96094-6.99609,6.99609-2.88965-2.88965-2.65332,2.65332V3.74984h16.5ZM3.74973,20.24984v-3.604l2.65332-2.65283,2.88965,2.88965,6.99609-6.99609,3.96094,3.96094v6.40234H3.74973ZM7.67062,10.84163c1.74902,0,3.17188-1.42236,3.17188-3.1709s-1.42285-3.17139-3.17188-3.17139c-1.74805,0-3.1709,1.42285-3.1709,3.17139s1.42285,3.1709,3.1709,3.1709ZM7.67062,5.99935c.92188,0,1.67188.75,1.67188,1.67139s-.75,1.6709-1.67188,1.6709c-.9209,0-1.6709-.74951-1.6709-1.6709s.75-1.67139,1.6709-1.67139Z"/></svg>

<svg xmlns="http://www.w3.org/2000/svg" viewBox="0 0 24 24"><title>Image</title><path d="M2.24973,2.24984v19.5h19.5v-19.5Zm18,1.5V11.7264L16.28879,7.76546l-6.9961,6.9961L6.40305,11.87191,3.74973,14.52523V3.74984Zm-16.5,16.5v-3.604L6.40305,13.993l2.88964,2.88965,6.9961-6.99609,3.96094,3.96093v6.40235Z" fill="#171717"/><path d="M7.67062,10.84163A3.17114,3.17114,0,1,0,4.49973,7.67074,3.17488,3.17488,0,0,0,7.67062,10.84163Zm0-4.84228A1.67114,1.67114,0,1,1,5.99973,7.67074,1.67367,1.67367,0,0,1,7.67062,5.99935Z" fill="#171717"/></svg>
